src/assets/EditIcon.svg

<svg width="24" height="24" viewBox="0 0 24 24" fill="none" xmlns="http://www.w3.org/2000/svg">
<path fill-rule="evenodd" clip-rule="evenodd" d="M16.9923 5.40373L18.4956 6.60085C18.6408 6.73748 18.7227 6.92833 18.7215 7.1277C18.7204 7.32707 18.6365 7.51701 18.4898 7.65205L17.3474 9.01909L13.4604 13.6549C13.3923 13.7328 13.3018 13.7875 13.2012 13.8114L11.1852 14.2684C10.9207 14.2816 10.6904 14.0893 10.6562 13.8268V11.7551C10.6631 11.6552 10.7033 11.5605 10.7705 11.4863L14.5855 7.17301L15.895 5.60917C16.154 5.26959 16.6278 5.18088 16.9923 5.40373Z" stroke="#266DDF" stroke-width="1.5" stroke-linecap="round" stroke-linejoin="round"/>
<path d="M11.5503 7.79156C11.9479 7.79156 12.2703 7.46921 12.2703 7.07156C12.2703 6.67392 11.9479 6.35156 11.5503 6.35156V7.79156ZM8.86228 7.07156V6.35156H8.86056L8.86228 7.07156ZM5.2786 10.6716H5.9986V10.67L5.2786 10.6716ZM5.2786 16.0716L5.9986 16.0731V16.0716H5.2786ZM8.86228 19.6716L8.86056 20.3916H8.86228V19.6716ZM14.2383 19.6716V20.3916H14.24L14.2383 19.6716ZM17.822 16.0716H17.102V16.0731L17.822 16.0716ZM18.542 12.4716C18.542 12.0739 18.2196 11.7516 17.822 11.7516C17.4243 11.7516 17.102 12.0739 17.102 12.4716H18.542ZM15.2494 6.89474C15.0977 6.52719 14.6767 6.35222 14.3091 6.50396C13.9415 6.6557 13.7666 7.07667 13.9184 7.44423L15.2494 6.89474ZM17.5012 9.71475C17.8894 9.62893 18.1346 9.24459 18.0488 8.85632C17.963 8.46805 17.5787 8.22286 17.1904 8.30869L17.5012 9.71475ZM7.9666 16.2521C7.56896 16.2521 7.2466 16.5744 7.2466 16.9721C7.2466 17.3697 7.56896 17.6921 7.9666 17.6921V16.2521ZM15.1349 17.6921C15.5325 17.6921 15.8549 17.3697 15.8549 16.9721C15.8549 16.5744 15.5325 16.2521 15.1349 16.2521V17.6921ZM11.5503 6.35156H8.86228V7.79156H11.5503V6.35156ZM8.86056 6.35156C6.47937 6.35728 4.55351 8.29192 4.5586 10.6731L5.9986 10.67C5.99521 9.08398 7.27798 7.79537 8.86401 7.79156L8.86056 6.35156ZM4.5586 10.6716V16.0716H5.9986V10.6716H4.5586ZM4.5586 16.07C4.55351 18.4512 6.47937 20.3859 8.86056 20.3916L8.86401 18.9516C7.27798 18.9478 5.99521 17.6592 5.9986 16.0731L4.5586 16.07ZM8.86228 20.3916H14.2383V18.9516H8.86228V20.3916ZM14.24 20.3916C16.6212 20.3859 18.547 18.4512 18.542 16.07L17.102 16.0731C17.1053 17.6592 15.8226 18.9478 14.2365 18.9516L14.24 20.3916ZM18.542 16.0716V12.4716H17.102V16.0716H18.542ZM13.9184 7.44423C14.1055 7.89747 14.4872 8.53988 15.0577 9.03626C15.6412 9.54401 16.4798 9.94055 17.5012 9.71475L17.1904 8.30869C16.744 8.40737 16.3561 8.2572 16.0029 7.94991C15.6367 7.63124 15.3715 7.1903 15.2494 6.89474L13.9184 7.44423ZM7.9666 17.6921H15.1349V16.2521H7.9666V17.6921Z" fill="#266DDF"/>
</svg>

<svg xmlns="http://www.w3.org/2000/svg" width="24" height="24" fill="none" viewBox="0 0 24 24"><path stroke="#266ddf" stroke-linecap="round" stroke-linejoin="round" stroke-width="1.5" d="M16.992 5.404 18.496 6.6a.72.72 0 0 1-.006 1.051L17.347 9.02l-3.887 4.636a.5.5 0 0 1-.259.156l-2.016.457a.51.51 0 0 1-.529-.441v-2.072a.45.45 0 0 1 .114-.269l3.816-4.313 1.309-1.564a.833.833 0 0 1 1.097-.205" clip-rule="evenodd"/><path fill="#266ddf" d="M11.55 7.792a.72.72 0 0 0 0-1.44zm-2.688-.72v-.72h-.001zm-3.583 3.6h.72v-.002zm0 5.4.72.001v-.001zm3.583 3.6-.001.72h.001zm5.376 0v.72h.002zm3.584-3.6h-.72v.001zm.72-3.6a.72.72 0 1 0-1.44 0zm-3.293-5.577a.72.72 0 1 0-1.33.55zm2.252 2.82a.72.72 0 0 0-.31-1.406zm-9.534 6.537a.72.72 0 1 0 0 1.44zm7.168 1.44a.72.72 0 0 0 0-1.44zM11.55 6.352H8.862v1.44h2.688zm-2.69 0a4.31 4.31 0 0 0-4.301 4.321l1.44-.003a2.87 2.87 0 0 1 2.865-2.878zm-4.301 4.32v5.4h1.44v-5.4zm0 5.398a4.31 4.31 0 0 0 4.302 4.322l.003-1.44a2.87 2.87 0 0 1-2.865-2.879zm4.303 4.322h5.376v-1.44H8.862zm5.378 0a4.31 4.31 0 0 0 4.302-4.322l-1.44.003a2.87 2.87 0 0 1-2.866 2.879zm4.302-4.32v-3.6h-1.44v3.6zm-4.624-8.628a4.5 4.5 0 0 0 1.14 1.592c.583.508 1.422.905 2.443.679l-.31-1.406c-.447.098-.835-.052-1.188-.36a3 3 0 0 1-.754-1.054zM7.967 17.692h7.168v-1.44H7.967z"/></svg>
